X:1
T: The Truant Officer
C:Bruce Shawyer
R:Strathspey
Q:128
K:C
M:4/4
L:1/16
|:G,|C3E G3c edcB G4|AGFE AGFE GG,3 G,3G,|C3E G3c edcB G4|AGFE D2EF GG,3 G,3G,|
C3E G3c edcB G4|AGFE AGFE GG,3 G,3G,|C3E G3c edcB G4|AGFE BcdB cC3 C3G|
c3d e3f gfed c4|dcBA dcBA BG3 G3G|c3d e3f gfed c4|AGFE D2EF GG,3 G,3G|
c3d e3f gfed c4|dcBA dcBA BG3 G3G|c3d e3f gfed c4|AGFE BcdB cC3 C3:|
